MODULE Module1
    PERS tooldata marcador:=[TRUE,[[0,0,209],[1,0,0,0]],[1,[0,0,1],[1,0,0,0],0,0,0]];
    TASK PERS wobjdata Workobject_pastel:=[FALSE,TRUE,"",[[687.766,552.106,155],[0,-0.707106781,0.707106781,0]],[[0,0,0],[1,0,0,0]]];
    CONST robtarget Target_10:=[[102.264963457,47.286978973,-59.999980948],[1,-0.000000043,0.000000005,-0.000000033],[0,-2,1,1],[9E+09,9E+09,9E+09,9E+09,9E+09,9E+09]];
    CONST robtarget Target_20:=[[105.525,47.287,0],[1,0,0,0],[0,-2,1,1],[9E+09,9E+09,9E+09,9E+09,9E+09,9E+09]];
    CONST robtarget Target_30:=[[105.525,64.12,0],[1,0,0,0],[0,-2,1,1],[9E+09,9E+09,9E+09,9E+09,9E+09,9E+09]];
    CONST robtarget Target_40:=[[98.588,72.432,0],[1,0,0,0],[0,-2,1,1],[9E+09,9E+09,9E+09,9E+09,9E+09,9E+09]];
    CONST robtarget Target_50:=[[91.95,64.987,0],[1,0,0,0],[0,-2,1,1],[9E+09,9E+09,9E+09,9E+09,9E+09,9E+09]];
    CONST robtarget Target_1410:=[[110.936,47.287,-10],[1,0,0,0],[0,-2,1,1],[9E+09,9E+09,9E+09,9E+09,9E+09,9E+09]];
    CONST robtarget Target_60:=[[110.936,47.287,0],[1,0,0,0],[0,-2,1,1],[9E+09,9E+09,9E+09,9E+09,9E+09,9E+09]];
    CONST robtarget Target_70:=[[110.936,62.057,0],[1,0,0,0],[0,-2,1,1],[9E+09,9E+09,9E+09,9E+09,9E+09,9E+09]];
    CONST robtarget Target_80:=[[120.713,72.432,0],[1,0,0,0],[0,-2,1,1],[9E+09,9E+09,9E+09,9E+09,9E+09,9E+09]];
    CONST robtarget Target_90:=[[130.371,61.549,0],[1,0,0,0],[0,-2,1,1],[9E+09,9E+09,9E+09,9E+09,9E+09,9E+09]];
    CONST robtarget Target_100:=[[130.371,47.287,0],[1,0,0,0],[0,-2,1,1],[9E+09,9E+09,9E+09,9E+09,9E+09,9E+09]];
    CONST robtarget Target_110:=[[133.092,72.013,-10],[1,0,0,0],[0,-2,1,1],[9E+09,9E+09,9E+09,9E+09,9E+09,9E+09]];
    CONST robtarget Target_120:=[[133.092,72.013,0],[1,0,0,0],[0,-2,1,1],[9E+09,9E+09,9E+09,9E+09,9E+09,9E+09]];
    CONST robtarget Target_130:=[[142.57,47.287,0],[1,0,0,0],[0,-2,1,1],[9E+09,9E+09,9E+09,9E+09,9E+09,9E+09]];
    CONST robtarget Target_140:=[[146.098,47.287,0],[1,0,0,0],[0,-2,1,1],[9E+09,9E+09,9E+09,9E+09,9E+09,9E+09]];
    CONST robtarget Target_150:=[[156.234,72.013,0],[1,0,0,0],[0,-2,1,1],[9E+09,9E+09,9E+09,9E+09,9E+09,9E+09]];
    CONST robtarget Target_160:=[[152.615,63.185,-10],[1,0,0,0],[0,-2,1,1],[9E+09,9E+09,9E+09,9E+09,9E+09,9E+09]];
    CONST robtarget Target_170:=[[152.472,62.837,0],[1,0,0,0],[0,-2,1,1],[9E+09,9E+09,9E+09,9E+09,9E+09,9E+09]];
    CONST robtarget Target_180:=[[136.91,62.051,0],[1,0,0,0],[0,-2,1,1],[9E+09,9E+09,9E+09,9E+09,9E+09,9E+09]];
    CONST robtarget Target_190:=[[158.805,72.013,-10],[1,0,0,0],[0,-2,1,1],[9E+09,9E+09,9E+09,9E+09,9E+09,9E+09]];
    CONST robtarget Target_200:=[[158.805,72.013,0],[1,0,0,0],[0,-2,1,1],[9E+09,9E+09,9E+09,9E+09,9E+09,9E+09]];
    CONST robtarget Target_210:=[[158.805,47.287,0],[1,0,0,0],[0,-2,1,1],[9E+09,9E+09,9E+09,9E+09,9E+09,9E+09]];
    CONST robtarget Target_220:=[[178.27,72.013,0],[1,0,0,0],[0,-2,1,1],[9E+09,9E+09,9E+09,9E+09,9E+09,9E+09]];
    CONST robtarget Target_230:=[[178.27,47.287,0],[1,0,0,0],[0,-2,1,1],[9E+09,9E+09,9E+09,9E+09,9E+09,9E+09]];
    CONST robtarget Target_240:=[[193.249,72.013,-10],[1,0,0,0],[0,-2,1,1],[9E+09,9E+09,9E+09,9E+09,9E+09,9E+09]];
    CONST robtarget Target_250:=[[193.249,72.013,0],[1,0,0,0],[0,-2,1,1],[9E+09,9E+09,9E+09,9E+09,9E+09,9E+09]];
    CONST robtarget Target_260:=[[193.249,47.287,0],[1,0,0,0],[0,-2,1,1],[9E+09,9E+09,9E+09,9E+09,9E+09,9E+09]];
    CONST robtarget Target_270:=[[205.015,72.013,0],[1,0,0,0],[0,-2,1,1],[9E+09,9E+09,9E+09,9E+09,9E+09,9E+09]];
    CONST robtarget Target_280:=[[216.84,47.287,0],[1,0,0,0],[0,-2,1,1],[9E+09,9E+09,9E+09,9E+09,9E+09,9E+09]];
    CONST robtarget Target_290:=[[216.84,72.013,0],[1,0,0,0],[0,-2,1,1],[9E+09,9E+09,9E+09,9E+09,9E+09,9E+09]];
    CONST robtarget Target_300:=[[240.042,47.287,-10],[1,0,0,0],[0,-2,1,1],[9E+09,9E+09,9E+09,9E+09,9E+09,9E+09]];
    CONST robtarget Target_310:=[[240.042,47.287,0],[1,0,0,0],[0,-2,1,1],[9E+09,9E+09,9E+09,9E+09,9E+09,9E+09]];
    CONST robtarget Target_320:=[[222.162,47.287,0],[1,0,0,0],[0,-2,1,1],[9E+09,9E+09,9E+09,9E+09,9E+09,9E+09]];
    CONST robtarget Target_330:=[[222.162,72.013,0],[1,0,0,0],[0,-2,1,1],[9E+09,9E+09,9E+09,9E+09,9E+09,9E+09]];
    CONST robtarget Target_340:=[[240.61,72.013,0],[1,0,0,0],[0,-2,1,1],[9E+09,9E+09,9E+09,9E+09,9E+09,9E+09]];
    CONST robtarget Target_350:=[[222.162,59.65,-10],[1,0,0,0],[0,-2,1,1],[9E+09,9E+09,9E+09,9E+09,9E+09,9E+09]];
    CONST robtarget Target_360:=[[222.162,59.65,0],[1,0,0,0],[0,-2,1,1],[9E+09,9E+09,9E+09,9E+09,9E+09,9E+09]];
    CONST robtarget Target_370:=[[239.115,59.202,0],[1,0,0,0],[0,-2,1,1],[9E+09,9E+09,9E+09,9E+09,9E+09,9E+09]];
    CONST robtarget Target_380:=[[244.586,47.287,-10],[1,0,0,0],[0,-2,1,1],[9E+09,9E+09,9E+09,9E+09,9E+09,9E+09]];
    CONST robtarget Target_390:=[[244.586,47.287,0],[1,0,0,0],[0,-2,1,1],[9E+09,9E+09,9E+09,9E+09,9E+09,9E+09]];
    CONST robtarget Target_400:=[[262.287,47.287,0],[1,0,0,0],[0,-2,1,1],[9E+09,9E+09,9E+09,9E+09,9E+09,9E+09]];
    CONST robtarget Target_410:=[[243.151,72.013,0],[1,0,0,0],[0,-2,1,1],[9E+09,9E+09,9E+09,9E+09,9E+09,9E+09]];
    CONST robtarget Target_420:=[[262.706,72.013,0],[1,0,0,0],[0,-2,1,1],[9E+09,9E+09,9E+09,9E+09,9E+09,9E+09]];
    CONST robtarget Target_430:=[[263.513,72.013,-10],[1,0,0,0],[0,-2,1,1],[9E+09,9E+09,9E+09,9E+09,9E+09,9E+09]];
    CONST robtarget Target_440:=[[263.513,72.013,0],[1,0,0,0],[0,-2,1,1],[9E+09,9E+09,9E+09,9E+09,9E+09,9E+09]];
    CONST robtarget Target_450:=[[272.991,47.287,0],[1,0,0,0],[0,-2,1,1],[9E+09,9E+09,9E+09,9E+09,9E+09,9E+09]];
    CONST robtarget Target_460:=[[276.519,47.287,0],[1,0,0,0],[0,-2,1,1],[9E+09,9E+09,9E+09,9E+09,9E+09,9E+09]];
    CONST robtarget Target_470:=[[286.625,72.013,0],[1,0,0,0],[0,-2,1,1],[9E+09,9E+09,9E+09,9E+09,9E+09,9E+09]];
    CONST robtarget Target_480:=[[282.916,62.938,-10],[1,0,0,0],[0,-2,1,1],[9E+09,9E+09,9E+09,9E+09,9E+09,9E+09]];
    CONST robtarget Target_490:=[[282.851,62.78,0],[1,0,0,0],[0,-2,1,1],[9E+09,9E+09,9E+09,9E+09,9E+09,9E+09]];
    CONST robtarget Target_500:=[[266.821,63.384,0],[1,0,0,0],[0,-2,1,1],[9E+09,9E+09,9E+09,9E+09,9E+09,9E+09]];
    CONST robtarget Target_1440:=[[266.799,63.441,-10],[1,0,0,0],[0,-2,1,1],[9E+09,9E+09,9E+09,9E+09,9E+09,9E+09]];
    CONST robtarget Target_510:=[[52.453,113.633,-10],[1,0,0,0],[0,-2,1,1],[9E+09,9E+09,9E+09,9E+09,9E+09,9E+09]];
    CONST robtarget Target_520:=[[52.453,113.633,0],[1,0,0,0],[0,-2,1,1],[9E+09,9E+09,9E+09,9E+09,9E+09,9E+09]];
    CONST robtarget Target_530:=[[61.931,88.907,0],[1,0,0,0],[0,-2,1,1],[9E+09,9E+09,9E+09,9E+09,9E+09,9E+09]];
    CONST robtarget Target_540:=[[65.459,88.907,0],[1,0,0,0],[0,-2,1,1],[9E+09,9E+09,9E+09,9E+09,9E+09,9E+09]];
    CONST robtarget Target_550:=[[75.565,113.633,0],[1,0,0,0],[0,-2,1,1],[9E+09,9E+09,9E+09,9E+09,9E+09,9E+09]];
    CONST robtarget Target_560:=[[55.868,104.724,-10],[1,0,0,0],[0,-2,1,1],[9E+09,9E+09,9E+09,9E+09,9E+09,9E+09]];
    CONST robtarget Target_570:=[[55.748,105.037,0],[1,0,0,0],[0,-2,1,1],[9E+09,9E+09,9E+09,9E+09,9E+09,9E+09]];
    CONST robtarget Target_580:=[[72.096,105.145,0],[1,0,0,0],[0,-2,1,1],[9E+09,9E+09,9E+09,9E+09,9E+09,9E+09]];
    CONST robtarget Target_590:=[[78.167,113.633,-10],[1,0,0,0],[0,-2,1,1],[9E+09,9E+09,9E+09,9E+09,9E+09,9E+09]];
    CONST robtarget Target_600:=[[78.167,113.633,0],[1,0,0,0],[0,-2,1,1],[9E+09,9E+09,9E+09,9E+09,9E+09,9E+09]];
    CONST robtarget Target_610:=[[78.167,88.907,0],[1,0,0,0],[0,-2,1,1],[9E+09,9E+09,9E+09,9E+09,9E+09,9E+09]];
    CONST robtarget Target_620:=[[97.631,113.633,0],[1,0,0,0],[0,-2,1,1],[9E+09,9E+09,9E+09,9E+09,9E+09,9E+09]];
    CONST robtarget Target_630:=[[97.631,88.907,0],[1,0,0,0],[0,-2,1,1],[9E+09,9E+09,9E+09,9E+09,9E+09,9E+09]];
    CONST robtarget Target_640:=[[103.133,88.907,-10],[1,0,0,0],[0,-2,1,1],[9E+09,9E+09,9E+09,9E+09,9E+09,9E+09]];
    CONST robtarget Target_650:=[[103.133,88.907,0],[1,0,0,0],[0,-2,1,1],[9E+09,9E+09,9E+09,9E+09,9E+09,9E+09]];
    CONST robtarget Target_660:=[[111.624,88.907,0],[1,0,0,0],[0,-2,1,1],[9E+09,9E+09,9E+09,9E+09,9E+09,9E+09]];
    CONST robtarget Target_670:=[[123.554,101.135,0],[1,0,0,0],[0,-2,1,1],[9E+09,9E+09,9E+09,9E+09,9E+09,9E+09]];
    CONST robtarget Target_680:=[[112.102,113.633,0],[1,0,0,0],[0,-2,1,1],[9E+09,9E+09,9E+09,9E+09,9E+09,9E+09]];
    CONST robtarget Target_690:=[[103.133,113.633,0],[1,0,0,0],[0,-2,1,1],[9E+09,9E+09,9E+09,9E+09,9E+09,9E+09]];
    CONST robtarget Target_700:=[[103.133,88.907,0],[1,0,0,0],[0,-2,1,1],[9E+09,9E+09,9E+09,9E+09,9E+09,9E+09]];
    CONST robtarget Target_710:=[[128.099,113.633,-10],[1,0,0,0],[0,-2,1,1],[9E+09,9E+09,9E+09,9E+09,9E+09,9E+09]];
    CONST robtarget Target_720:=[[128.099,113.633,0],[1,0,0,0],[0,-2,1,1],[9E+09,9E+09,9E+09,9E+09,9E+09,9E+09]];
    CONST robtarget Target_730:=[[128.099,88.907,0],[1,0,0,0],[0,-2,1,1],[9E+09,9E+09,9E+09,9E+09,9E+09,9E+09]];
    CONST robtarget Target_740:=[[139.042,88.907,0],[1,0,0,0],[0,-2,1,1],[9E+09,9E+09,9E+09,9E+09,9E+09,9E+09]];
    CONST robtarget Target_750:=[[147.862,95.634,0],[1,0,0,0],[0,-2,1,1],[9E+09,9E+09,9E+09,9E+09,9E+09,9E+09]];
    CONST robtarget Target_760:=[[140.925,102.391,0],[1,0,0,0],[0,-2,1,1],[9E+09,9E+09,9E+09,9E+09,9E+09,9E+09]];
    CONST robtarget Target_770:=[[131.358,102.66,0],[1,0,0,0],[0,-2,1,1],[9E+09,9E+09,9E+09,9E+09,9E+09,9E+09]];
    CONST robtarget Target_780:=[[135.155,102.66,0],[1,0,0,0],[0,-2,1,1],[9E+09,9E+09,9E+09,9E+09,9E+09,9E+09]];
    CONST robtarget Target_790:=[[140.925,102.391,0],[1,0,0,0],[0,-2,1,1],[9E+09,9E+09,9E+09,9E+09,9E+09,9E+09]];
    CONST robtarget Target_800:=[[149.865,113.633,0],[1,0,0,0],[0,-2,1,1],[9E+09,9E+09,9E+09,9E+09,9E+09,9E+09]];
    CONST robtarget Target_810:=[[171.483,113.633,-10],[1,0,0,0],[0,-2,1,1],[9E+09,9E+09,9E+09,9E+09,9E+09,9E+09]];
    CONST robtarget Target_820:=[[171.483,113.633,0],[1,0,0,0],[0,-2,1,1],[9E+09,9E+09,9E+09,9E+09,9E+09,9E+09]];
    CONST robtarget Target_830:=[[153.035,113.633,0],[1,0,0,0],[0,-2,1,1],[9E+09,9E+09,9E+09,9E+09,9E+09,9E+09]];
    CONST robtarget Target_840:=[[153.035,88.907,0],[1,0,0,0],[0,-2,1,1],[9E+09,9E+09,9E+09,9E+09,9E+09,9E+09]];
    CONST robtarget Target_850:=[[170.914,88.907,0],[1,0,0,0],[0,-2,1,1],[9E+09,9E+09,9E+09,9E+09,9E+09,9E+09]];
    CONST robtarget Target_860:=[[153.035,101.27,-10],[1,0,0,0],[0,-2,1,1],[9E+09,9E+09,9E+09,9E+09,9E+09,9E+09]];
    CONST robtarget Target_870:=[[153.035,101.27,0],[1,0,0,0],[0,-2,1,1],[9E+09,9E+09,9E+09,9E+09,9E+09,9E+09]];
    CONST robtarget Target_880:=[[169.988,100.851,0],[1,0,0,0],[0,-2,1,1],[9E+09,9E+09,9E+09,9E+09,9E+09,9E+09]];
    CONST robtarget Target_890:=[[174.891,105.68,-10],[1,0,0,0],[0,-2,1,1],[9E+09,9E+09,9E+09,9E+09,9E+09,9E+09]];
    CONST robtarget Target_900:=[[174.891,105.68,0],[1,0,0,0],[0,-2,1,1],[9E+09,9E+09,9E+09,9E+09,9E+09,9E+09]];
    CONST robtarget Target_910:=[[185.939,114.037,0],[1,0,0,0],[0,-2,1,1],[9E+09,9E+09,9E+09,9E+09,9E+09,9E+09]];
    CONST robtarget Target_920:=[[194.565,106.637,0],[1,0,0,0],[0,-2,1,1],[9E+09,9E+09,9E+09,9E+09,9E+09,9E+09]];
    CONST robtarget Target_1470:=[[193.585,103.279,0],[1,0,0,0],[0,0,0,0],[9E+09,9E+09,9E+09,9E+09,9E+09,9E+09]];
    CONST robtarget Target_930:=[[190.349,100.627,0],[1,0,0,0],[0,-2,1,1],[9E+09,9E+09,9E+09,9E+09,9E+09,9E+09]];
    CONST robtarget Target_1490:=[[188.813,100.071,0],[1,0,0,0],[0,0,0,0],[9E+09,9E+09,9E+09,9E+09,9E+09,9E+09]];
    CONST robtarget Target_1500:=[[186.913,99.534,0],[1,0,0,0],[0,0,0,0],[9E+09,9E+09,9E+09,9E+09,9E+09,9E+09]];
    CONST robtarget Target_940:=[[180.004,100.986,0],[1,0,0,0],[0,-2,1,1],[9E+09,9E+09,9E+09,9E+09,9E+09,9E+09]];
    CONST robtarget Target_950:=[[175.818,95.305,0],[1,0,0,0],[0,-2,1,1],[9E+09,9E+09,9E+09,9E+09,9E+09,9E+09]];
    CONST robtarget Target_960:=[[182.784,88.637,0],[1,0,0,0],[0,-2,1,1],[9E+09,9E+09,9E+09,9E+09,9E+09,9E+09]];
    CONST robtarget Target_1480:=[[190.113,89.785,0],[1,0,0,0],[0,0,0,0],[9E+09,9E+09,9E+09,9E+09,9E+09,9E+09]];
    CONST robtarget Target_970:=[[193.802,95.753,0],[1,0,0,0],[0,-2,1,1],[9E+09,9E+09,9E+09,9E+09,9E+09,9E+09]];
    CONST robtarget Target_980:=[[205.897,113.633,-10],[1,0,0,0],[0,-2,1,1],[9E+09,9E+09,9E+09,9E+09,9E+09,9E+09]];
    CONST robtarget Target_990:=[[205.897,113.633,0],[1,0,0,0],[0,-2,1,1],[9E+09,9E+09,9E+09,9E+09,9E+09,9E+09]];
    CONST robtarget Target_1000:=[[215.375,88.907,0],[1,0,0,0],[0,-2,1,1],[9E+09,9E+09,9E+09,9E+09,9E+09,9E+09]];
    CONST robtarget Target_1010:=[[218.903,88.907,0],[1,0,0,0],[0,-2,1,1],[9E+09,9E+09,9E+09,9E+09,9E+09,9E+09]];
    CONST robtarget Target_1020:=[[229.009,113.633,0],[1,0,0,0],[0,-2,1,1],[9E+09,9E+09,9E+09,9E+09,9E+09,9E+09]];
    CONST robtarget Target_1030:=[[225.409,104.825,-10],[1,0,0,0],[0,-2,1,1],[9E+09,9E+09,9E+09,9E+09,9E+09,9E+09]];
    CONST robtarget Target_1040:=[[225.473,104.981,0],[1,0,0,0],[0,-2,1,1],[9E+09,9E+09,9E+09,9E+09,9E+09,9E+09]];
    CONST robtarget Target_1050:=[[209.353,104.617,0],[1,0,0,0],[0,-2,1,1],[9E+09,9E+09,9E+09,9E+09,9E+09,9E+09]];
    CONST robtarget Target_1060:=[[229.129,88.907,-10],[1,0,0,0],[0,-2,1,1],[9E+09,9E+09,9E+09,9E+09,9E+09,9E+09]];
    CONST robtarget Target_1070:=[[229.129,88.907,0],[1,0,0,0],[0,-2,1,1],[9E+09,9E+09,9E+09,9E+09,9E+09,9E+09]];
    CONST robtarget Target_1080:=[[240.371,113.633,0],[1,0,0,0],[0,-2,1,1],[9E+09,9E+09,9E+09,9E+09,9E+09,9E+09]];
    CONST robtarget Target_1090:=[[251.732,88.907,0],[1,0,0,0],[0,-2,1,1],[9E+09,9E+09,9E+09,9E+09,9E+09,9E+09]];
    CONST robtarget Target_1100:=[[256.86,88.907,-10],[1,0,0,0],[0,-2,1,1],[9E+09,9E+09,9E+09,9E+09,9E+09,9E+09]];
    CONST robtarget Target_1110:=[[256.86,88.907,0],[1,0,0,0],[0,-2,1,1],[9E+09,9E+09,9E+09,9E+09,9E+09,9E+09]];
    CONST robtarget Target_1120:=[[256.86,113.633,0],[1,0,0,0],[0,-2,1,1],[9E+09,9E+09,9E+09,9E+09,9E+09,9E+09]];
    CONST robtarget Target_1130:=[[264.111,88.907,-10],[1,0,0,0],[0,-2,1,1],[9E+09,9E+09,9E+09,9E+09,9E+09,9E+09]];
    CONST robtarget Target_1140:=[[264.111,88.907,0],[1,0,0,0],[0,-2,1,1],[9E+09,9E+09,9E+09,9E+09,9E+09,9E+09]];
    CONST robtarget Target_1150:=[[264.111,113.633,0],[1,0,0,0],[0,-2,1,1],[9E+09,9E+09,9E+09,9E+09,9E+09,9E+09]];
    CONST robtarget Target_1160:=[[279.569,113.633,0],[1,0,0,0],[0,-2,1,1],[9E+09,9E+09,9E+09,9E+09,9E+09,9E+09]];
    CONST robtarget Target_1170:=[[280.735,113.633,-10],[1,0,0,0],[0,-2,1,1],[9E+09,9E+09,9E+09,9E+09,9E+09,9E+09]];
    CONST robtarget Target_1180:=[[280.735,113.633,0],[1,0,0,0],[0,-2,1,1],[9E+09,9E+09,9E+09,9E+09,9E+09,9E+09]];
    CONST robtarget Target_1190:=[[290.213,88.907,0],[1,0,0,0],[0,-2,1,1],[9E+09,9E+09,9E+09,9E+09,9E+09,9E+09]];
    CONST robtarget Target_1200:=[[293.741,88.907,0],[1,0,0,0],[0,-2,1,1],[9E+09,9E+09,9E+09,9E+09,9E+09,9E+09]];
    CONST robtarget Target_1210:=[[303.847,113.633,0],[1,0,0,0],[0,-2,1,1],[9E+09,9E+09,9E+09,9E+09,9E+09,9E+09]];
    CONST robtarget Target_1220:=[[284.434,103.982,-10],[1,0,0,0],[0,-2,1,1],[9E+09,9E+09,9E+09,9E+09,9E+09,9E+09]];
    CONST robtarget Target_1230:=[[284.548,103.686,0],[1,0,0,0],[0,-2,1,1],[9E+09,9E+09,9E+09,9E+09,9E+09,9E+09]];
    CONST robtarget Target_1240:=[[299.971,104.148,0],[1,0,0,0],[0,-2,1,1],[9E+09,9E+09,9E+09,9E+09,9E+09,9E+09]];
    CONST robtarget Target_1250:=[[306.448,113.633,-10],[1,0,0,0],[0,-2,1,1],[9E+09,9E+09,9E+09,9E+09,9E+09,9E+09]];
    CONST robtarget Target_1260:=[[306.448,113.633,0],[1,0,0,0],[0,-2,1,1],[9E+09,9E+09,9E+09,9E+09,9E+09,9E+09]];
    CONST robtarget Target_1270:=[[306.448,88.907,0],[1,0,0,0],[0,-2,1,1],[9E+09,9E+09,9E+09,9E+09,9E+09,9E+09]];
    CONST robtarget Target_1280:=[[325.912997817,113.633031091,-0.000004716],[1,-0.000000033,0.000000001,0.000000005],[0,-2,1,1],[9E+09,9E+09,9E+09,9E+09,9E+09,9E+09]];
    CONST robtarget Target_1290:=[[325.91299572,88.9069995,0.000007263],[1,-0.000000049,0.000000001,0.000000001],[0,-2,1,1],[9E+09,9E+09,9E+09,9E+09,9E+09,9E+09]];
    CONST robtarget Target_1450:=[[325.913,89.046,-10],[1,0,0,0],[0,-2,1,1],[9E+09,9E+09,9E+09,9E+09,9E+09,9E+09]];
    CONST robtarget Target_1300:=[[200.526999914,136.485989032,-9.999998552],[1,-0.000000042,0,0],[0,-2,1,1],[9E+09,9E+09,9E+09,9E+09,9E+09,9E+09]];
    CONST robtarget Target_1310:=[[200.526999899,136.485984736,0.00000073],[1,-0.000000034,0,0],[0,-2,1,1],[9E+09,9E+09,9E+09,9E+09,9E+09,9E+09]];
    CONST robtarget Target_1320:=[[152.869995867,178.191996645,-0.000008621],[1,-0.000000017,-0.000000001,-0.000000005],[0,-2,1,1],[9E+09,9E+09,9E+09,9E+09,9E+09,9E+09]];
    CONST robtarget Target_1330:=[[183.436999717,239.546995617,0.000004448],[1,-0.000000027,0,-0.000000001],[0,-2,1,1],[9E+09,9E+09,9E+09,9E+09,9E+09,9E+09]];
    CONST robtarget Target_1340:=[[214.836999176,161.733016278,0.000003845],[1,-0.000000039,0.000000001,-0.000000001],[0,-2,1,1],[9E+09,9E+09,9E+09,9E+09,9E+09,9E+09]];
    CONST robtarget Target_1350:=[[240.311999069,212.649983752,0.000002118],[1,-0.000000036,0.000000002,0],[0,-2,1,1],[9E+09,9E+09,9E+09,9E+09,9E+09,9E+09]];
    CONST robtarget Target_1360:=[[170.75299994,212.578028573,0.000014544],[1,-0.000000059,0,0],[0,-2,1,1],[9E+09,9E+09,9E+09,9E+09,9E+09,9E+09]];
    CONST robtarget Target_1370:=[[208.944000416,136.256032795,0.000006789],[1,-0.000000054,0,0.000000001],[0,-2,1,1],[9E+09,9E+09,9E+09,9E+09,9E+09,9E+09]];
    CONST robtarget Target_1380:=[[258.824995803,199.40001149,0.000007107],[1,-0.000000056,0.000000001,-0.000000004],[0,-2,1,1],[9E+09,9E+09,9E+09,9E+09,9E+09,9E+09]];
    CONST robtarget Target_1390:=[[190.443000334,242.353018606,0.000008828],[1,-0.000000045,0,0],[0,-2,1,1],[9E+09,9E+09,9E+09,9E+09,9E+09,9E+09]];
    CONST robtarget Target_1400:=[[190.325000398,242.263013497,-9.999993028],[1,-0.000000035,0,0.000000001],[0,-2,1,1],[9E+09,9E+09,9E+09,9E+09,9E+09,9E+09]];
    CONST robtarget Target_1460:=[[102.265,47.287,-60],[1,0,0,0],[0,-2,1,1],[9E+09,9E+09,9E+09,9E+09,9E+09,9E+09]];
    PROC Path_10()
        Movej Target_10,v80,z0,marcador\WObj:=Workobject_pastel;
        MoveL Target_20,v80,z0,marcador\WObj:=Workobject_pastel;
        MoveL Target_30,v80,z0,marcador\WObj:=Workobject_pastel;
        MoveC Target_40,Target_50,v80,z0,marcador\WObj:=Workobject_pastel;
        MoveL Target_1410,v80,z0,marcador\WObj:=Workobject_pastel;
        MoveL Target_60,v80,z0,marcador\WObj:=Workobject_pastel;
        MoveL Target_70,v80,z0,marcador\WObj:=Workobject_pastel;
        MoveC Target_80,Target_90,v80,z0,marcador\WObj:=Workobject_pastel;
        MoveL Target_100,v80,z0,marcador\WObj:=Workobject_pastel;
        MoveL Target_110,v80,z0,marcador\WObj:=Workobject_pastel;
        MoveL Target_120,v80,z0,marcador\WObj:=Workobject_pastel;
        MoveL Target_130,v80,z0,marcador\WObj:=Workobject_pastel;
        MoveL Target_140,v80,z0,marcador\WObj:=Workobject_pastel;
        MoveL Target_150,v80,z0,marcador\WObj:=Workobject_pastel;
        MoveL Target_160,v80,z0,marcador\WObj:=Workobject_pastel;
        MoveL Target_170,v80,z0,marcador\WObj:=Workobject_pastel;
        MoveL Target_180,v80,z0,marcador\WObj:=Workobject_pastel;
        MoveL Target_190,v80,z0,marcador\WObj:=Workobject_pastel;
        MoveL Target_200,v80,z0,marcador\WObj:=Workobject_pastel;
        MoveL Target_210,v80,z0,marcador\WObj:=Workobject_pastel;
        MoveL Target_220,v80,z0,marcador\WObj:=Workobject_pastel;
        MoveL Target_230,v80,z0,marcador\WObj:=Workobject_pastel;
        MoveL Target_240,v80,z0,marcador\WObj:=Workobject_pastel;
        MoveL Target_250,v80,z0,marcador\WObj:=Workobject_pastel;
        MoveL Target_260,v80,z0,marcador\WObj:=Workobject_pastel;
        MoveL Target_270,v80,z0,marcador\WObj:=Workobject_pastel;
        MoveL Target_280,v80,z0,marcador\WObj:=Workobject_pastel;
        MoveL Target_290,v80,z0,marcador\WObj:=Workobject_pastel;
        MoveL Target_300,v80,z0,marcador\WObj:=Workobject_pastel;
        MoveL Target_310,v80,z0,marcador\WObj:=Workobject_pastel;
        MoveL Target_320,v80,z0,marcador\WObj:=Workobject_pastel;
        MoveL Target_330,v80,z0,marcador\WObj:=Workobject_pastel;
        MoveL Target_340,v80,z0,marcador\WObj:=Workobject_pastel;
        MoveL Target_350,v80,z0,marcador\WObj:=Workobject_pastel;
        MoveL Target_360,v80,z0,marcador\WObj:=Workobject_pastel;
        MoveL Target_370,v80,z0,marcador\WObj:=Workobject_pastel;
        MoveL Target_380,v80,z0,marcador\WObj:=Workobject_pastel;
        MoveL Target_390,v80,z0,marcador\WObj:=Workobject_pastel;
        MoveL Target_400,v80,z0,marcador\WObj:=Workobject_pastel;
        MoveL Target_410,v80,z0,marcador\WObj:=Workobject_pastel;
        MoveL Target_420,v80,z0,marcador\WObj:=Workobject_pastel;
        MoveL Target_430,v80,z0,marcador\WObj:=Workobject_pastel;
        MoveL Target_440,v80,z0,marcador\WObj:=Workobject_pastel;
        MoveL Target_450,v80,z0,marcador\WObj:=Workobject_pastel;
        MoveL Target_460,v80,z0,marcador\WObj:=Workobject_pastel;
        MoveL Target_470,v80,z0,marcador\WObj:=Workobject_pastel;
        MoveL Target_480,v80,z0,marcador\WObj:=Workobject_pastel;
        MoveL Target_490,v80,z0,marcador\WObj:=Workobject_pastel;
        MoveL Target_500,v80,z0,marcador\WObj:=Workobject_pastel;
        MoveL Target_1440,v80,z0,marcador\WObj:=Workobject_pastel;
        MoveL Target_510,v80,z0,marcador\WObj:=Workobject_pastel;
        MoveL Target_520,v80,z0,marcador\WObj:=Workobject_pastel;
        MoveL Target_530,v80,z0,marcador\WObj:=Workobject_pastel;
        MoveL Target_540,v80,z0,marcador\WObj:=Workobject_pastel;
        MoveL Target_550,v80,z0,marcador\WObj:=Workobject_pastel;
        MoveL Target_560,v80,z0,marcador\WObj:=Workobject_pastel;
        MoveL Target_570,v80,z0,marcador\WObj:=Workobject_pastel;
        MoveL Target_580,v80,z0,marcador\WObj:=Workobject_pastel;
        MoveL Target_590,v80,z0,marcador\WObj:=Workobject_pastel;
        MoveL Target_600,v80,z0,marcador\WObj:=Workobject_pastel;
        MoveL Target_610,v80,z0,marcador\WObj:=Workobject_pastel;
        MoveL Target_620,v80,z0,marcador\WObj:=Workobject_pastel;
        MoveL Target_630,v80,z0,marcador\WObj:=Workobject_pastel;
        MoveL Target_640,v80,z0,marcador\WObj:=Workobject_pastel;
        MoveL Target_650,v80,z0,marcador\WObj:=Workobject_pastel;
        MoveL Target_660,v80,z0,marcador\WObj:=Workobject_pastel;
        MoveC Target_670,Target_680,v80,z0,marcador\WObj:=Workobject_pastel;
        MoveL Target_690,v80,z0,marcador\WObj:=Workobject_pastel;
        MoveL Target_700,v80,z0,marcador\WObj:=Workobject_pastel;
        MoveL Target_710,v80,z0,marcador\WObj:=Workobject_pastel;
        MoveL Target_720,v80,z0,marcador\WObj:=Workobject_pastel;
        MoveL Target_730,v80,z0,marcador\WObj:=Workobject_pastel;
        MoveL Target_740,v80,z0,marcador\WObj:=Workobject_pastel;
        MoveC Target_750,Target_760,v80,z0,marcador\WObj:=Workobject_pastel;
        MoveL Target_770,v80,z0,marcador\WObj:=Workobject_pastel;
        MoveL Target_780,v80,z0,marcador\WObj:=Workobject_pastel;
        MoveL Target_790,v80,z0,marcador\WObj:=Workobject_pastel;
        MoveL Target_800,v80,z0,marcador\WObj:=Workobject_pastel;
        MoveL Target_810,v80,z0,marcador\WObj:=Workobject_pastel;
        MoveL Target_820,v80,z0,marcador\WObj:=Workobject_pastel;
        MoveL Target_830,v80,z0,marcador\WObj:=Workobject_pastel;
        MoveL Target_840,v80,z0,marcador\WObj:=Workobject_pastel;
        MoveL Target_850,v80,z0,marcador\WObj:=Workobject_pastel;
        MoveL Target_860,v80,z0,marcador\WObj:=Workobject_pastel;
        MoveL Target_870,v80,z0,marcador\WObj:=Workobject_pastel;
        MoveL Target_880,v80,z0,marcador\WObj:=Workobject_pastel;
        MoveL Target_890,v80,z0,marcador\WObj:=Workobject_pastel;
        MoveL Target_900,v80,z0,marcador\WObj:=Workobject_pastel;
        MoveC Target_910,Target_920,v80,z0,marcador\WObj:=Workobject_pastel;
        MoveC Target_1470,Target_930,v80,z0,marcador\WObj:=Workobject_pastel;
        MoveL Target_940,v80,z0,marcador\WObj:=Workobject_pastel;
        MoveC Target_950,Target_960,v80,z0,marcador\WObj:=Workobject_pastel;
        MoveC Target_1480,Target_970,v80,z0,marcador\WObj:=Workobject_pastel;
        MoveL Target_980,v80,z0,marcador\WObj:=Workobject_pastel;
        MoveL Target_990,v80,z0,marcador\WObj:=Workobject_pastel;
        MoveL Target_1000,v80,z0,marcador\WObj:=Workobject_pastel;
        MoveL Target_1010,v80,z0,marcador\WObj:=Workobject_pastel;
        MoveL Target_1020,v80,z0,marcador\WObj:=Workobject_pastel;
        MoveL Target_1030,v80,z0,marcador\WObj:=Workobject_pastel;
        MoveL Target_1040,v80,z0,marcador\WObj:=Workobject_pastel;
        MoveL Target_1050,v80,z0,marcador\WObj:=Workobject_pastel;
        MoveL Target_1060,v80,z0,marcador\WObj:=Workobject_pastel;
        MoveL Target_1070,v80,z0,marcador\WObj:=Workobject_pastel;
        MoveL Target_1080,v80,z0,marcador\WObj:=Workobject_pastel;
        MoveL Target_1090,v80,z0,marcador\WObj:=Workobject_pastel;
        MoveL Target_1100,v80,z0,marcador\WObj:=Workobject_pastel;
        MoveL Target_1110,v80,z0,marcador\WObj:=Workobject_pastel;
        MoveL Target_1120,v80,z0,marcador\WObj:=Workobject_pastel;
        MoveL Target_1130,v80,z0,marcador\WObj:=Workobject_pastel;
        MoveL Target_1140,v80,z0,marcador\WObj:=Workobject_pastel;
        MoveL Target_1150,v80,z0,marcador\WObj:=Workobject_pastel;
        MoveL Target_1160,v80,z0,marcador\WObj:=Workobject_pastel;
        MoveL Target_1170,v80,z0,marcador\WObj:=Workobject_pastel;
        MoveL Target_1180,v80,z0,marcador\WObj:=Workobject_pastel;
        MoveL Target_1190,v80,z0,marcador\WObj:=Workobject_pastel;
        MoveL Target_1200,v80,z0,marcador\WObj:=Workobject_pastel;
        MoveL Target_1210,v80,z0,marcador\WObj:=Workobject_pastel;
        MoveL Target_1220,v80,z0,marcador\WObj:=Workobject_pastel;
        MoveL Target_1230,v80,z0,marcador\WObj:=Workobject_pastel;
        MoveL Target_1240,v80,z0,marcador\WObj:=Workobject_pastel;
        MoveL Target_1250,v80,z0,marcador\WObj:=Workobject_pastel;
        MoveL Target_1260,v80,z0,marcador\WObj:=Workobject_pastel;
        MoveL Target_1270,v80,z0,marcador\WObj:=Workobject_pastel;
        MoveL Target_1280,v80,z0,marcador\WObj:=Workobject_pastel;
        MoveL Target_1290,v80,z0,marcador\WObj:=Workobject_pastel;
        MoveL Target_1450,v80,z0,marcador\WObj:=Workobject_pastel;
        MoveL Target_1300,v80,z0,marcador\WObj:=Workobject_pastel;
        MoveL Target_1310,v80,z0,marcador\WObj:=Workobject_pastel;
        MoveC Target_1320,Target_1330,v80,z0,marcador\WObj:=Workobject_pastel;
        MoveL Target_1340,v80,z0,marcador\WObj:=Workobject_pastel;
        MoveL Target_1350,v80,z0,marcador\WObj:=Workobject_pastel;
        MoveL Target_1360,v80,z0,marcador\WObj:=Workobject_pastel;
        MoveL Target_1370,v80,z0,marcador\WObj:=Workobject_pastel;
        MoveC Target_1380,Target_1390,v80,z0,marcador\WObj:=Workobject_pastel;
        MoveL Target_1400,v80,z0,marcador\WObj:=Workobject_pastel;
        Movej Target_1460,v80,z0,marcador\WObj:=Workobject_pastel;
    ENDPROC
    PROC main()
        Path_10;
    ENDPROC
ENDMODULE